public/img/stream-timeline-arrows.svg

<svg width="393" height="174" viewBox="0 0 393 174" fill="none" xmlns="http://www.w3.org/2000/svg">
<path d="M206 14L217 25L206 36" stroke="#FFC900" stroke-width="3"/>
<path d="M187 129L176 140L187 151" stroke="#FFC900" stroke-width="3"/>
<path d="M391 57.5V57.5C391 39.4478 376.366 24.8136 358.314 24.8136L26.8135 24.8136C13.1094 24.8136 2 13.7041 2 0V0" stroke="#FFD100" stroke-width="3"/>
<path d="M2 173.5V173.5C2 154.896 17.0819 139.814 35.6864 139.814L368.686 139.814C381.01 139.814 391 129.823 391 117.5V117.5" stroke="#FFD100" stroke-width="3"/>
</svg>

<svg width="393" height="174" fill="none" xmlns="http://www.w3.org/2000/svg"><path d="M206 14l11 11-11 11m-19 93l-11 11 11 11" stroke="#FFC900" stroke-width="3"/><path d="M391 57.5v0c0-18.052-14.634-32.686-32.686-32.686h-331.5C13.108 24.814 2 13.704 2 0v0m0 173.5v0c0-18.604 15.082-33.686 33.686-33.686h333c12.324 0 22.314-9.991 22.314-22.314v0" stroke="#FFD100" stroke-width="3"/></svg>
